X:1
T:Title
%%score { ( 1 3 ) | ( 2 4 ) }
L:1/8
M:4/4
K:G
V:1 treble nm="Grand Piano"
V:3 treble 
V:2 bass 
V:4 bass 
V:1
 z4 z2[Q:1/4=100] D2 | [B,D]3 [B,D] [_B,^C]D E>c | [DB]6 z2 | [Fd]3 [FA] [Ec]2 [Fc]2 | %4
[M:3/4] [GB]6 |[M:1/4] D2 |[M:4/4] [B,D]3 [B,D] [_B,^C]D E>c | [DB]6 z2 | [^CB]3 [CA] [CE]2 A2 | %9
[M:11/16] A/-A/-A/-A/-A/-A/-A/-A-<A |[M:3/8] BBB |[M:4/4] [Fc]6 z2 | [DB]6 z2 | %13
 [^DB]3 [DF] [EG]2 [EA]2 |[M:11/16] [^DB]/-[DB]/-[DB]/-[DB]/-[DB]-<[DB][=Dc]3/2 |[M:3/8] BBB | %16
[M:4/4] [Fc]6 z2 | [DB]6 z2 | [^CB]3 [CE] ED A2 |[M:3/4] [B,G]6 |] %20
V:2
 z4 z2 B,2 | G,,D,G,D, G,B, .[C,G,C]>E | G,,D,G,D, G,2 G2 | A,,D,A,D, .F,2 .[D,A,]2 | %4
[M:3/4] G,,D, G,D, G,2 |[M:1/4] B,2 |[M:4/4] G,,D,G,D, G,B, .[C,G,C]>E | G,,D,G,D, G,2 D2 | %8
 [A,,G,]4 z2 ^C2 |[M:11/16] C-<C-[A,C-][G,C-][D,F,C]3/2 |[M:3/8][K:treble] DEG | %11
[M:4/4][K:bass] A,,[D,A,] [D,A,]>[D,A,] [D,A,][K:treble]F E>^D | %12
 G,,[D,G,] [D,G,]>[D,G,] [D,G,]2 [G,D]2 | [B,,F,]3 [B,,B,] [E,B,]2 [C,E,]2 | %14
[M:11/16] F,/-F,/-F,/-F,/-F,/-F,/-F,/-F,-<F, |[M:3/8][K:treble] DEG | %16
[M:4/4][K:bass] A,,[D,A,] [D,A,]>[D,A,] [D,A,][K:treble]F E>^D | %17
 G,,[D,G,] [D,G,]>[D,G,] [D,G,]2 [G,,G,]2 | [A,,G,]3 [A,,G,] [D,F,C]2 [D,F,C]2 |[M:3/4] [G,,D,]6 |] %20
V:3
 x8 | x8 | z4 B,2 B2 | x8 |[M:3/4] z2 z2 B,2 |[M:1/4] x2 |[M:4/4] x8 | z4 B,2 B2 | x8 | %9
[M:11/16] z/ z/ z FED3/2 |[M:3/8] x3 |[M:4/4] z C C>C Cc c>G | z B, B,>B, B,2 B2 | x8 | %14
[M:11/16] x11/2 |[M:3/8] x3 |[M:4/4] z C C>C Cc c>G | z B, B,>B, B,2 [DB]2 | x8 |[M:3/4] x6 |] %20
V:4
 x8 | x8 | x8 | x8 |[M:3/4] x6 |[M:1/4] x2 |[M:4/4] x8 | x8 | z4 [A,,G,]4 | %9
[M:11/16] [D,F,]-<[D,-F,]D,-<D, z/ z |[M:3/8][K:treble] x3 |[M:4/4][K:bass] x5[K:treble] x3 | x8 | %13
 x8 |[M:11/16] B,,/-B,,/-B,,/-B,,/-B,,-<B,,A,,3/2 |[M:3/8][K:treble] x3 | %16
[M:4/4][K:bass] x5[K:treble] x3 | x8 | x8 |[M:3/4] x6 |] %20

